build/img/garant-icon.svg

<svg width="78" height="37" viewBox="0 0 78 37" fill="none" xmlns="http://www.w3.org/2000/svg">
<path d="M48.823 28.2009C47.7257 29.2982 47.7257 31.0753 48.823 32.1727C49.3717 32.7214 50.0907 32.9947 50.8099 32.9947C51.529 32.9947 52.248 32.7214 52.7967 32.1727L62.0193 22.9482L58.0456 18.9783L48.823 28.2009Z" fill="white"/>
<path d="M71.8729 11.1079L75.8897 9.03115L77.9926 4.96573L76.032 3.00513L71.9684 5.10994L69.8879 9.12293L65.0023 14.0142L66.9835 15.9992L71.8729 11.1079Z" fill="white"/>
<path d="M72.753 21.7687L72.3747 21.7312C71.6893 21.7312 71.0395 21.8717 70.4328 22.0964L58.9031 10.5649C59.1279 9.95816 59.2683 9.30835 59.2683 8.62298L59.2309 8.2447C59.0324 5.32153 56.6242 3.00513 53.6505 3.00513C52.7853 3.00513 51.9745 3.21672 51.2423 3.56692L54.9744 7.29902C55.171 7.49564 55.3059 7.72781 55.3958 7.97317C55.6411 8.63604 55.5081 9.41134 54.9744 9.94689C54.6093 10.3121 54.1299 10.4956 53.6505 10.4956C53.4296 10.4956 53.2104 10.4469 53.0007 10.3682C52.7554 10.2746 52.5232 10.1435 52.3265 9.94504L48.5945 6.21479C48.2443 6.94697 48.0327 7.75781 48.0327 8.62298C48.0327 11.5967 50.3491 14.0049 53.2723 14.2033L53.6506 14.2408C54.3359 14.2408 54.9858 14.1003 55.5924 13.8775L67.1202 25.4072C66.8993 26.0139 66.7588 26.6637 66.7588 27.3491L66.7981 27.7274C66.9929 30.6524 69.4029 32.9669 72.3766 32.9669C73.2418 32.9669 74.0545 32.7591 74.7848 32.4051L71.0527 28.673C70.8579 28.4783 70.7212 28.2442 70.6276 28.0008C70.3823 27.3379 70.5152 26.5608 71.0527 26.0252C71.4141 25.6601 71.8972 25.4766 72.3766 25.4766C72.5976 25.4766 72.8148 25.5234 73.0283 25.6039C73.2736 25.6957 73.5076 25.8268 73.7005 26.0252L77.4326 29.7573C77.7846 29.0232 77.9944 28.2143 77.9944 27.3491C77.9925 24.3753 75.6761 21.9671 72.753 21.7687Z" fill="white"/>
<path d="M30.4374 6.27694C25.436 4.90655 20.4053 2.77274 15.8889 0.106229C15.649 -0.0354098 15.3513 -0.0354098 15.1115 0.106229C10.4649 2.84934 5.70596 4.86772 0.56258 6.27694C0.230314 6.36788 0 6.6699 0 7.01445V14.8274C0 22.873 3.71165 28.1986 6.82544 31.2494C10.1776 34.5341 14.0825 36.3506 15.5002 36.3506C16.9178 36.3506 20.8226 34.5341 24.1748 31.2494C27.2886 28.1987 31 22.8731 31 14.8274V7.01438C31 6.6699 30.7697 6.36788 30.4374 6.27694Z" fill="white"/>
<path d="M10.8145 16.4827C10.3925 16.0261 9.83114 15.7748 9.23415 15.7748C8.63715 15.7748 8.07577 16.0262 7.65352 16.4827C6.78216 17.4254 6.78216 18.9594 7.65352 19.902L11.7124 24.2922C12.1345 24.7486 12.6958 25 13.2929 25C13.8899 25 14.4512 24.7486 14.8734 24.2921L23.3465 15.1269C24.2178 14.184 24.2178 12.6503 23.3464 11.7079C22.9243 11.2513 22.363 11 21.7659 11C21.1688 11 20.6075 11.2514 20.1853 11.7079L13.2928 19.1632L10.8145 16.4827Z" fill="#1DD9B7"/>
</svg>

<svg width="78" height="37" fill="none" xmlns="http://www.w3.org/2000/svg"><path d="M48.823 28.2a2.808 2.808 0 0 0 1.987 4.795 2.8 2.8 0 0 0 1.987-.822l9.222-9.225-3.973-3.97-9.223 9.223zm23.05-17.092L75.89 9.03l2.103-4.065-1.961-1.96-4.064 2.104-2.08 4.013-4.886 4.891L66.984 16l4.889-4.891z" fill="#fff"/><path d="M72.753 21.769l-.378-.038c-.686 0-1.335.14-1.942.365l-11.53-11.531a5.57 5.57 0 0 0 .365-1.942l-.037-.378c-.199-2.923-2.607-5.24-5.58-5.24-.866 0-1.677.212-2.409.562l3.732 3.732c.197.197.332.429.422.674a1.87 1.87 0 0 1-.422 1.974 1.867 1.867 0 0 1-1.323.549c-.221 0-.44-.05-.65-.128a1.863 1.863 0 0 1-.674-.423l-3.733-3.73a5.559 5.559 0 0 0-.561 2.408c0 2.974 2.316 5.382 5.24 5.58l.378.038c.685 0 1.335-.14 1.941-.364l11.528 11.53a5.658 5.658 0 0 0-.361 1.942l.04.378c.194 2.925 2.604 5.24 5.578 5.24a5.5 5.5 0 0 0 2.408-.562l-3.732-3.732a1.91 1.91 0 0 1-.425-.672 1.867 1.867 0 0 1 1.749-2.524c.22 0 .438.046.651.127.246.092.48.223.672.421l3.733 3.732a5.54 5.54 0 0 0 .561-2.408c-.001-2.974-2.318-5.382-5.241-5.58zM30.437 6.277C25.436 4.907 20.405 2.773 15.89.107a.764.764 0 0 0-.777 0c-4.647 2.742-9.406 4.76-14.55 6.17A.765.765 0 0 0 0 7.014v7.813C0 22.873 3.712 28.2 6.825 31.25c3.353 3.285 7.257 5.102 8.675 5.102 1.418 0 5.323-1.817 8.675-5.102C27.289 28.2 31 22.873 31 14.827V7.014a.764.764 0 0 0-.563-.737z" fill="#fff"/><path d="M10.815 16.483a2.139 2.139 0 0 0-1.58-.708 2.14 2.14 0 0 0-1.581.708c-.872.942-.872 2.476 0 3.419l4.058 4.39a2.14 2.14 0 0 0 1.58.708 2.14 2.14 0 0 0 1.581-.708l8.473-9.165c.872-.943.872-2.477 0-3.42a2.139 2.139 0 0 0-1.58-.707 2.14 2.14 0 0 0-1.58.708l-6.893 7.455-2.478-2.68z" fill="#1DD9B7"/></svg>
